brandFactory_export/2.Regular/(2)Cuidar_2Regular.svg

<?xml version="1.0" encoding="UTF-8"?>
<svg width="24px" height="24px" viewBox="0 0 24 24" version="1.1" xmlns="http://www.w3.org/2000/svg" xmlns:xlink="http://www.w3.org/1999/xlink">
    <title>2.Regular/(2)Cuidar_2Regular</title>
    <g id="Symbols" stroke="none" stroke-width="1" fill="none" fill-rule="evenodd">
        <g id="2.Regular/(2)Cuidar_2Regular" fill="#5CB615" fill-rule="nonzero">
            <path d="M16.907563,18.9042017 C17.2336134,18.6957983 17.2033613,18.6453782 17.0857143,18.4168067 C16.9680672,18.1983193 16.7596639,18.1277311 16.5546218,18.1983193 L12.9714286,19.4521008 C12.9310924,19.4621849 12.8941176,19.4521008 12.8537815,19.4621849 C12.5680672,19.6302521 12.2521008,19.7411765 11.9058824,19.7411765 L7.41512605,19.7411765 C7.01176471,19.7411765 6.67563025,19.4117647 6.67563025,18.994958 C6.67563025,18.5882353 7.01176471,18.2487395 7.41512605,18.2487395 L11.9058824,18.2487395 C12.1042017,18.2487395 12.3193277,18.0302521 12.3193277,17.8319328 C12.3193277,17.6638655 12.2319328,17.4722689 12.0336134,17.4621849 L11.7882353,17.4722689 C11.0285714,17.4823529 9.43865546,17.5226891 7.92941176,16.5747899 C7.91932773,16.5647059 7.21008403,16.1848739 5.03865546,16.107563 L5.03865546,19.8722689 L9.20336134,21.892437 C9.49915966,22.0605042 9.84537815,22.1310924 10.2588235,22.1310924 C10.6252101,22.1310924 10.9210084,22.0806723 11.1563025,21.9731092 C11.1731092,21.9596639 15.5563025,19.7613445 16.907563,18.9042017 L16.907563,18.9042017 Z M3.55630252,21.3445378 L3.55630252,15.687395 C3.55630252,15.5294118 3.43865546,15.4084034 3.27731092,15.4084034 L1.78823529,15.4084034 C1.64033613,15.4084034 1.5092437,15.5294118 1.5092437,15.687395 L1.5092437,21.3445378 C1.5092437,21.492437 1.63697479,21.6134454 1.78823529,21.6134454 L3.27731092,21.6134454 C3.43865546,21.6134454 3.55630252,21.492437 3.55630252,21.3445378 Z M16.0672269,16.7831933 C16.9478992,16.4739496 17.912605,16.8336134 18.3563025,17.6403361 C18.8907563,18.6756303 18.6319328,19.5731092 17.6941176,20.1680672 C16.2823529,21.0655462 11.9697479,23.2336134 11.7848739,23.3243697 C11.3310924,23.5226891 10.8268908,23.6235294 10.2554622,23.6235294 C9.57310924,23.6235294 8.98151261,23.4857143 8.50756303,23.2067227 L5.01512605,21.5226891 C4.92436975,22.410084 4.18487395,23.1058824 3.27731092,23.1058824 L1.78823529,23.1058824 C0.820168067,23.1058824 0.0302521008,22.3193277 0.0302521008,21.3445378 L0.0302521008,15.687395 C0.0302521008,14.712605 0.820168067,13.9159664 1.78823529,13.9159664 L3.27731092,13.9159664 C3.84201681,13.9159664 4.33277311,14.1848739 4.65882353,14.6016807 C7.58991597,14.6521008 8.56470588,15.210084 8.73277311,15.3176471 C9.83865546,16.0134454 11.0890756,15.9831933 11.7512605,15.9764706 C11.8689076,15.9663866 11.9798319,15.9663866 12.0470588,15.9663866 C12.9445378,15.9865546 13.6571429,16.6722689 13.7747899,17.5798319 L16.0672269,16.7831933 Z M2.54117647,16.1142857 C2.88067227,16.1142857 3.12605042,16.3596639 3.12605042,16.702521 C3.12605042,17.0453782 2.88403361,17.297479 2.54117647,17.297479 C2.20168067,17.297479 1.94957983,17.0453782 1.94957983,16.702521 C1.94957983,16.3596639 2.20168067,16.1142857 2.54117647,16.1142857 L2.54117647,16.1142857 Z M22.1781513,7.94285714 L22.1781513,2.28571429 C22.1781513,2.13781513 22.0605042,2.01680672 21.9092437,2.01680672 L20.4201681,2.01680672 C20.2621849,2.01680672 20.1411765,2.13781513 20.1411765,2.28571429 L20.1411765,7.94285714 C20.1411765,8.0907563 20.2621849,8.22184874 20.4201681,8.22184874 L21.9092437,8.22184874 C22.0571429,8.22184874 22.1781513,8.0907563 22.1781513,7.94285714 L22.1781513,7.94285714 Z M18.6621849,7.52268908 L18.6621849,3.75798319 L14.497479,1.73781513 C14.1915966,1.5697479 13.8554622,1.49915966 13.4420168,1.49915966 C13.0789916,1.49915966 12.7798319,1.54957983 12.5445378,1.65714286 C12.5243697,1.66722689 8.13445378,3.86890756 6.79327731,4.72605042 C6.46722689,4.93445378 6.48739496,4.98487395 6.61512605,5.21344538 C6.72605042,5.43193277 6.94117647,5.50252101 7.14957983,5.43193277 L10.7294118,4.17815126 C10.7697479,4.16806723 10.8067227,4.16806723 10.8470588,4.16806723 C11.1226891,3.98991597 11.4487395,3.88907563 11.7848739,3.88907563 L16.2857143,3.88907563 C16.6890756,3.88907563 17.0252101,4.21848739 17.0252101,4.63529412 C17.0252101,5.04201681 16.6890756,5.38151261 16.2857143,5.38151261 L11.7848739,5.38151261 C11.5966387,5.38151261 11.3815126,5.6 11.3815126,5.78823529 C11.3815126,5.96638655 11.4689076,6.15798319 11.6672269,6.15798319 L11.902521,6.15798319 C12.6722689,6.13781513 14.2588235,6.10756303 15.7714286,7.05210084 C15.7815126,7.06554622 16.4840336,7.44537815 18.6621849,7.52268908 Z M21.9092437,0.524369748 C22.8773109,0.524369748 23.6571429,1.31092437 23.6571429,2.28571429 L23.6571429,7.94285714 C23.6571429,8.91764706 22.8773109,9.71428571 21.9092437,9.71428571 L20.4201681,9.71428571 C19.8554622,9.71428571 19.3546218,9.43529412 19.0386555,9.02857143 C16.107563,8.97815126 15.1327731,8.42016807 14.9647059,8.31260504 C13.8588235,7.61680672 12.6084034,7.63361345 11.9462185,7.65378151 L11.6403361,7.65378151 C10.7428571,7.64369748 10.0302521,6.94789916 9.92605042,6.04033613 L7.63697479,6.84705882 C7.41848739,6.91764706 7.20336134,6.95798319 6.99495798,6.95798319 C6.32268908,6.95798319 5.68403361,6.59831933 5.34453782,5.99327731 C4.81008403,4.94789916 5.06890756,4.0605042 5.99663866,3.46554622 C7.41848739,2.56806723 11.7310924,0.4 11.9159664,0.309243697 C12.9042017,-0.137815126 14.312605,-0.087394958 15.1932773,0.430252101 L18.6857143,2.11428571 C18.7731092,1.22689076 19.5159664,0.531092437 20.4235294,0.531092437 L21.9092437,0.531092437 L21.9092437,0.524369748 Z M21.2033613,6.32941176 C21.5394958,6.32941176 21.7781513,6.57815126 21.7781513,6.91764706 C21.7781513,7.25378151 21.5394958,7.49579832 21.2033613,7.49579832 C20.8705882,7.49579832 20.6285714,7.25378151 20.6285714,6.91764706 C20.6319328,6.57815126 20.8705882,6.32941176 21.2033613,6.32941176 Z M10.2756303,10.2857143 C10.1008403,10.4369748 10.1445378,10.7495798 10.1848739,10.9243697 C10.2890756,11.3680672 10.5008403,11.8386555 10.8067227,12.3193277 C11.0588235,12.7159664 11.2537815,12.9613445 11.6033613,13.3243697 C11.6268908,13.3478992 11.7109244,13.4386555 11.7848739,13.4890756 C11.8117647,13.4957983 11.8386555,13.4991597 11.8621849,13.5058824 C11.9361345,13.4319328 12.0134454,13.3478992 12.0369748,13.3243697 C12.3932773,12.9546218 12.5815126,12.712605 12.8336134,12.3193277 C13.1394958,11.8386555 13.3512605,11.3680672 13.4554622,10.9243697 C13.4957983,10.7495798 13.5394958,10.4336134 13.3680672,10.2857143 C13.2907563,10.2184874 13.1697479,10.1747899 13.0386555,10.1680672 C12.8672269,10.1613445 12.6823529,10.2084034 12.5042017,10.3058824 L12.0470588,10.5747899 L11.6470588,10.5848739 L11.1394958,10.3058824 C10.9781513,10.2151261 10.810084,10.1680672 10.6487395,10.1680672 L10.6084034,10.1680672 C10.4739496,10.1781513 10.3529412,10.2184874 10.2756303,10.2857143 L10.2756303,10.2857143 Z M10.6151261,14.302521 C10.1983193,13.8689076 9.94621849,13.5495798 9.64369748,13.0756303 C9.25378151,12.4605042 8.98151261,11.8453782 8.84369748,11.2504202 C8.6487395,10.4268908 8.84369748,9.6907563 9.37478992,9.2302521 C9.68403361,8.96134454 10.0941176,8.80336134 10.5344538,8.77983193 C10.9579832,8.75966387 11.405042,8.86386555 11.8084034,9.08907563 L11.8184874,9.09579832 C11.8218487,9.09243697 11.8285714,9.09243697 11.8319328,9.08907563 C12.2319328,8.86386555 12.6789916,8.75966387 13.1058824,8.77983193 C13.5428571,8.80336134 13.9529412,8.96134454 14.2621849,9.2302521 C14.7966387,9.6907563 14.9915966,10.4268908 14.7966387,11.2504202 C14.6554622,11.8487395 14.3865546,12.4638655 13.9932773,13.0756303 C13.6941176,13.5462185 13.4420168,13.8621849 13.0386555,14.2857143 C12.9815126,14.3462185 12.8067227,14.5176471 12.6621849,14.6252101 C12.4941176,14.7495798 12.2957983,14.8369748 12.1008403,14.8806723 L11.8252101,14.9109244 L11.8218487,14.9109244 C11.6739496,14.9042017 11.6033613,14.8941176 11.5361345,14.8806723 C11.3445378,14.8403361 11.1495798,14.7495798 10.9781513,14.6252101 C10.8369748,14.5243697 10.6655462,14.3529412 10.6151261,14.302521 L10.6151261,14.302521 Z" id="(2)Cuidar_2Regular"></path>
        </g>
    </g>
</svg>

<svg width="24" height="24" viewBox="0 0 24 24" xmlns="http://www.w3.org/2000/svg"><path d="M16.908 18.904c.326-.208.295-.259.178-.487-.118-.219-.326-.29-.531-.219l-3.584 1.254c-.04.01-.077 0-.117.01a1.858 1.858 0 01-.948.28h-4.49a.743.743 0 01-.74-.747.75.75 0 01.74-.746h4.49c.198 0 .413-.219.413-.417 0-.168-.087-.36-.285-.37l-.246.01c-.76.01-2.35.05-3.859-.897-.01-.01-.719-.39-2.89-.467v3.764l4.164 2.02c.296.169.642.24 1.056.24.366 0 .662-.051.897-.159.017-.013 4.4-2.212 5.752-3.069zm-13.352 2.44v-5.657a.272.272 0 00-.279-.279H1.788a.28.28 0 00-.279.28v5.657c0 .147.128.268.28.268h1.488a.27.27 0 00.28-.268zm12.511-4.56c.88-.31 1.846.05 2.29.856.534 1.036.275 1.933-.663 2.528-1.412.898-5.724 3.066-5.91 3.156-.453.199-.957.3-1.529.3-.682 0-1.273-.138-1.747-.417l-3.493-1.684a1.754 1.754 0 01-1.738 1.583H1.788A1.76 1.76 0 01.03 21.345v-5.658c0-.974.79-1.771 1.758-1.771h1.49c.564 0 1.055.269 1.38.686 2.932.05 3.907.608 4.075.716 1.106.695 2.356.665 3.018.658.118-.01.229-.01.296-.01.898.02 1.61.706 1.728 1.614l2.292-.797zm-13.526-.67c.34 0 .585.246.585.589 0 .342-.242.594-.585.594a.577.577 0 01-.591-.594c0-.343.252-.589.591-.589zm19.637-8.171V2.286a.268.268 0 00-.269-.27H20.42a.272.272 0 00-.279.27v5.657a.28.28 0 00.28.279h1.488a.279.279 0 00.27-.28zm-3.516-.42V3.758l-4.165-2.02c-.305-.168-.642-.239-1.055-.239-.363 0-.662.05-.897.158-.02.01-4.41 2.212-5.752 3.07-.326.207-.306.258-.178.486.111.219.326.29.535.219l3.58-1.254c.04-.01.077-.01.117-.01.276-.178.602-.279.938-.279h4.5c.404 0 .74.33.74.746a.75.75 0 01-.74.747h-4.5c-.188 0-.403.218-.403.406 0 .178.087.37.285.37h.236c.77-.02 2.356-.05 3.868.894.01.014.713.393 2.891.47zM21.91.524c.968 0 1.748.787 1.748 1.762v5.657c0 .975-.78 1.771-1.748 1.771H20.42a1.758 1.758 0 01-1.381-.685c-2.931-.05-3.906-.609-4.074-.716-1.106-.696-2.357-.68-3.019-.66h-.306c-.897-.01-1.61-.705-1.714-1.613l-2.289.807c-.219.07-.434.111-.642.111-.672 0-1.311-.36-1.65-.965-.535-1.045-.276-1.932.652-2.527C7.418 2.568 11.73.4 11.916.309c.988-.447 2.397-.396 3.277.121l3.493 1.684A1.751 1.751 0 0120.424.531h1.485V.524zm-.706 5.805c.336 0 .575.25.575.589a.555.555 0 01-.575.578.557.557 0 01-.574-.578c.003-.34.242-.589.574-.589zm-10.927 3.957c-.175.151-.131.464-.091.638.104.444.316.915.622 1.395.252.397.447.642.796 1.005.024.024.108.115.182.165.027.007.054.01.077.017.074-.074.151-.158.175-.182.356-.37.545-.611.797-1.005.305-.48.517-.95.621-1.395.04-.174.084-.49-.087-.638a.555.555 0 00-.33-.118 1.04 1.04 0 00-.534.138l-.457.269-.4.01-.508-.28a1.006 1.006 0 00-.49-.137h-.04a.58.58 0 00-.333.118zm.34 4.017a7.14 7.14 0 01-.972-1.227c-.39-.615-.662-1.23-.8-1.826-.195-.823 0-1.56.53-2.02.31-.269.72-.427 1.16-.45a2.4 2.4 0 011.274.31l.01.006c.004-.004.01-.004.014-.007.4-.225.847-.33 1.274-.31.437.024.847.182 1.156.451.535.46.73 1.197.535 2.02-.142.599-.41 1.214-.804 1.826-.299.47-.551.786-.954 1.21-.057.06-.232.232-.377.34a1.515 1.515 0 01-.561.255l-.276.03h-.003a1.738 1.738 0 01-.286-.03 1.496 1.496 0 01-.558-.256 3.397 3.397 0 01-.363-.322z" fill="#5CB615" fill-rule="nonzero"/></svg>
